svgs/thin/usb-drive.svg

<svg xmlns="http://www.w3.org/2000/svg" viewBox="0 0 640 512"><!--! Font Awesome Pro 6.6.0 by @fontawesome - https://fontawesome.com License - https://fontawesome.com/license (Commercial License) Copyright 2024 Fonticons, Inc. --><path d="M64 112c-26.5 0-48 21.5-48 48l0 192c0 26.5 21.5 48 48 48l352 0c8.8 0 16-7.2 16-16l0-256c0-8.8-7.2-16-16-16L64 112zM0 160c0-35.3 28.7-64 64-64l352 0c17.7 0 32 14.3 32 32l0 256c0 17.7-14.3 32-32 32L64 416c-35.3 0-64-28.7-64-64L0 160zM480 384l0-16 128 0c8.8 0 16-7.2 16-16l0-192c0-8.8-7.2-16-16-16l-128 0 0-16 128 0c17.7 0 32 14.3 32 32l0 192c0 17.7-14.3 32-32 32l-128 0zm64-80a16 16 0 1 0 32 0 16 16 0 1 0 -32 0zm16 32a32 32 0 1 1 0-64 32 32 0 1 1 0 64zm0-112a16 16 0 1 0 0-32 16 16 0 1 0 0 32zm32-16a32 32 0 1 1 -64 0 32 32 0 1 1 64 0z"/></svg>

<svg xmlns="http://www.w3.org/2000/svg" viewBox="0 0 640 512"><!--! Font Awesome Pro 6.4.0 by @fontawesome - https://fontawesome.com License - https://fontawesome.com/license (Commercial License) Copyright 2023 Fonticons, Inc. --><path d="M64 112c-26.5 0-48 21.5-48 48V352c0 26.5 21.5 48 48 48H416c8.8 0 16-7.2 16-16V128c0-8.8-7.2-16-16-16H64zM0 160c0-35.3 28.7-64 64-64H416c17.7 0 32 14.3 32 32V384c0 17.7-14.3 32-32 32H64c-35.3 0-64-28.7-64-64V160zM480 384V368H608c8.8 0 16-7.2 16-16V160c0-8.8-7.2-16-16-16H480V128H608c17.7 0 32 14.3 32 32V352c0 17.7-14.3 32-32 32H480zm64-80a16 16 0 1 0 32 0 16 16 0 1 0 -32 0zm16 32a32 32 0 1 1 0-64 32 32 0 1 1 0 64zm0-112a16 16 0 1 0 0-32 16 16 0 1 0 0 32zm32-16a32 32 0 1 1 -64 0 32 32 0 1 1 64 0z"/></svg>
